lib/icons/share-dots.svg

<svg width="14" height="16" viewBox="0 0 14 16" fill="none" xmlns="http://www.w3.org/2000/svg">
<path fill-rule="evenodd" clip-rule="evenodd" d="M11.2454 4.5C12.2119 4.5 12.9954 3.7165 12.9954 2.75C12.9954 1.7835 12.2119 1 11.2454 1C10.2789 1 9.49542 1.7835 9.49542 2.75C9.49542 3.7165 10.2789 4.5 11.2454 4.5ZM11.2454 5.5C12.7642 5.5 13.9954 4.26878 13.9954 2.75C13.9954 1.23122 12.7642 0 11.2454 0C9.72664 0 8.49542 1.23122 8.49542 2.75C8.49542 3.07896 8.55318 3.39444 8.65912 3.68683L4.96236 6.15242C4.46145 5.47521 3.657 5.03611 2.75 5.03611C1.23122 5.03611 0 6.26732 0 7.78611C0 9.30489 1.23122 10.5361 2.75 10.5361C3.358 10.5361 3.91991 10.3388 4.3752 10.0047L8.56177 12.5612C8.5057 12.78 8.47589 13.0094 8.47589 13.2457C8.47589 14.7645 9.70711 15.9957 11.2259 15.9957C12.7447 15.9957 13.9759 14.7645 13.9759 13.2457C13.9759 11.7269 12.7447 10.4957 11.2259 10.4957C10.3025 10.4957 9.48543 10.9508 8.9867 11.6489L5.07274 9.25896C5.3433 8.83318 5.5 8.32794 5.5 7.78611C5.5 7.53491 5.46632 7.29159 5.40323 7.06039L9.16662 4.55036C9.67085 5.13207 10.4152 5.5 11.2454 5.5ZM2.75 6.03611C3.30997 6.03611 3.80852 6.29912 4.12884 6.70835L4.11276 6.71907L4.34813 7.07197C4.44573 7.29004 4.5 7.53174 4.5 7.78611C4.5 8.75261 3.7165 9.53611 2.75 9.53611C1.7835 9.53611 1 8.75261 1 7.78611C1 6.81961 1.7835 6.03611 2.75 6.03611ZM12.9759 13.2457C12.9759 14.2122 12.1924 14.9957 11.2259 14.9957C10.2594 14.9957 9.47589 14.2122 9.47589 13.2457C9.47589 12.2792 10.2594 11.4957 11.2259 11.4957C12.1924 11.4957 12.9759 12.2792 12.9759 13.2457Z" fill="#7A859E"/>
</svg>

<svg width="14" height="16" fill="none" xmlns="http://www.w3.org/2000/svg"><path fill-rule="evenodd" clip-rule="evenodd" d="M11.245 4.5a1.75 1.75 0 1 0 0-3.5 1.75 1.75 0 0 0 0 3.5Zm0 1A2.75 2.75 0 1 0 8.66 3.687L4.962 6.152a2.75 2.75 0 1 0-.587 3.852l4.187 2.557a2.755 2.755 0 0 0 2.664 3.435 2.75 2.75 0 1 0-2.24-4.347l-3.913-2.39a2.737 2.737 0 0 0 .33-2.199l3.764-2.51c.504.582 1.248.95 2.078.95Zm-8.495.536c.56 0 1.059.263 1.379.672l-.016.011.235.353A1.75 1.75 0 1 1 2.75 6.036Zm10.226 7.21a1.75 1.75 0 1 1-3.5 0 1.75 1.75 0 0 1 3.5 0Z" fill="#7A859E"/></svg>
